front/svg/symbols/main/share-google.svg

<?xml version="1.0" encoding="UTF-8" standalone="no"?>
<svg version="1.1" xmlns="http://www.w3.org/2000/svg" xmlns:xlink="http://www.w3.org/1999/xlink" viewBox="0 0 32 32" preserveAspectRatio="xMinYMin meet">
	<defs>
		<path id="path-1" d="M0,0.0036240099 L28.8108787,0.0036240099 L28.8108787,18.30125 L0,18.30125 L0,0.0036240099 Z"></path>
	</defs>
	<g stroke="none" stroke-width="1" fill="none" fill-rule="evenodd" transform="translate(2,7)">
		<mask id="mask-1" fill="white">
			<use xlink:href="#path-1"></use>
		</mask>
		<path d="M25.63987,7.51982054 L25.63987,4.34881188 L23.3748639,4.34881188 L23.3748639,7.51982054 L20.113255,7.51982054 L20.113255,9.78482673 L23.3748639,9.78482673 L23.3748639,13.0464356 L25.63987,13.0464356 L25.63987,9.78482673 L28.8108787,9.78482673 L28.8108787,7.51982054 L25.63987,7.51982054 L25.63987,7.51982054 Z M9.150625,7.33862005 L9.150625,10.96263 C9.150625,10.96263 12.666277,10.9579187 14.0977609,10.9579187 C13.3225852,13.3072738 12.1172395,14.5866399 9.150625,14.5866399 C6.1484046,14.5866399 3.8052104,12.1528454 3.8052104,9.150625 C3.8052104,6.1484046 6.1484046,3.71461015 9.150625,3.71461015 C10.7379413,3.71461015 11.7630831,4.27252647 12.7034231,5.0501484 C13.45613,4.29744154 13.3932534,4.19017085 15.3082708,2.38169931 C13.6826306,0.902016064 11.5219959,0 9.150625,0 C4.09685259,0 0,4.09685259 0,9.150625 C0,14.2043068 4.09685259,18.30125 9.150625,18.30125 C16.7046018,18.30125 18.5509443,11.723672 17.938849,7.33862005 L9.150625,7.33862005 L9.150625,7.33862005 Z" fill="#DD4B39" mask="url(#mask-1)"></path>
	</g>
</svg>

<svg xmlns="http://www.w3.org/2000/svg" xmlns:xlink="http://www.w3.org/1999/xlink" viewBox="0 0 32 32" preserveAspectRatio="xMinYMin meet"><defs><path id="a" d="M0 .004h28.81V18.3H0V.005z"/></defs><g fill="none" fill-rule="evenodd" transform="translate(2 7)"><mask id="b" fill="#fff"><use xlink:href="#a"/></mask><path d="M25.64 7.52V4.35h-2.265v3.17h-3.262v2.265h3.262v3.26h2.265v-3.26h3.17V7.52h-3.17zM9.15 7.34v3.623s3.516-.005 4.948-.005c-.775 2.35-1.98 3.63-4.947 3.63-3.002 0-5.345-2.435-5.345-5.437 0-3.002 2.343-5.435 5.346-5.435 1.588 0 2.613.558 3.553 1.335.753-.753.69-.86 2.605-2.668C13.683.902 11.522 0 9.15 0 4.098 0 0 4.097 0 9.15c0 5.054 4.097 9.15 9.15 9.15 7.555 0 9.4-6.576 8.79-10.96H9.15z" fill="#DD4B39" mask="url(#b)"/></g></svg>
